public/topics/15.svg

<svg width="250" height="250" viewBox="0 0 250 250" fill="none" xmlns="http://www.w3.org/2000/svg">
<rect width="250" height="250" rx="30" fill="#660099"/>
<path d="M88.6 89.8C87.2667 115.933 86.6 136.733 86.6 152.2C86.6 160.2 86.8 167.8 87.2 175C88.2667 175.8 90.3333 176.2 93.4 176.2L98 176C99.8667 175.733 101.6 175.6 103.2 175.6C106.667 175.6 109.333 176.2 111.2 177.4C113.2 178.6 114.2 180.933 114.2 184.4C114.2 187.733 113.2 190.333 111.2 192.2C109.333 194.067 105.4 195 99.4 195C94.3333 195 88.2 194.6 81 193.8C79.2667 193.667 77.6 193.533 76 193.4C74.4 193.267 72.9333 193.2 71.6 193.2C64.2667 193.333 58.8 193.6 55.2 194C51.6 194.4 47.5333 194.6 43 194.6C38.8667 194.6 36.8 191.467 36.8 185.2C36.8 179.2 40.6667 176.2 48.4 176.2C49.6 176.2 51.5333 176.333 54.2 176.6C56.4667 177 58.8667 177.2 61.4 177.2C62.8667 177.2 64.0667 177.133 65 177C65.1333 168.067 65.6 155.067 66.4 138C67.2 118 67.6 103.2 67.6 93.6C66.9333 93.7333 64.6 94.6667 60.6 96.4C54.4667 99.4667 49.9333 101 47 101C45.4 101 43.9333 100.2 42.6 98.6C41.2667 96.8667 40.6 94.8667 40.6 92.6C40.6 90.3333 42 88.1333 44.8 86C47.6 83.8667 52.1333 81.0667 58.4 77.6C61.8667 75.8667 65.2 73.9333 68.4 71.8C69.2 71.2667 70.3333 70.7333 71.8 70.2C73.4 69.6667 74.6 69.4 75.4 69.4C78.8667 69.4 82 70.1333 84.8 71.6C87.7333 72.9333 89.2 74.7333 89.2 77L88.6 89.8ZM156.773 90.2C155.84 93.9333 155.24 98.8667 154.973 105C154.707 110.333 154.307 114.333 153.773 117C157.64 115.4 161.307 114.4 164.773 114C168.24 113.467 172.64 113.2 177.973 113.2C186.24 113.2 193.44 115.133 199.573 119C205.707 122.733 210.373 127.8 213.573 134.2C216.773 140.467 218.373 147.2 218.373 154.4C218.373 157.2 217.44 161 215.573 165.8C213.707 170.467 211.773 174.067 209.773 176.6C205.107 182.733 199.707 187.467 193.573 190.8C187.44 194 180.773 195.6 173.573 195.6C168.107 195.6 163.107 194.867 158.573 193.4C154.173 191.8 149.44 189.667 144.373 187C139.173 184.2 135.373 181.333 132.973 178.4C130.707 175.333 129.573 171.533 129.573 167C129.573 164.6 130.573 162.667 132.573 161.2C134.707 159.6 136.707 158.8 138.573 158.8C139.773 158.8 140.84 159.133 141.773 159.8C142.707 160.467 144.24 161.8 146.373 163.8L151.373 168.6C154.573 171.267 157.707 173.267 160.773 174.6C163.973 175.933 167.84 176.6 172.373 176.6C176.507 176.6 179.84 176.067 182.373 175C187.44 173 191.373 170.4 194.173 167.2C197.107 164 198.573 158.867 198.573 151.8C198.573 145 196.307 139.733 191.773 136C187.24 132.133 179.573 130.2 168.773 130.2C167.307 130.2 165.173 130.6 162.373 131.4C159.573 132.2 156.84 133.067 154.173 134C147.773 136.133 143.84 137.2 142.373 137.2C140.507 137.2 138.64 136.4 136.773 134.8C134.907 133.2 133.973 131.067 133.973 128.4C136.373 112.267 137.573 98.8667 137.573 88.2L137.373 83.2C137.107 80.8 136.973 78.8 136.973 77.2C136.973 74.8 138.24 73 140.773 71.8C143.44 70.4667 146.173 69.8 148.973 69.8C151.373 69.8 156.573 70.2 164.573 71L174.173 71.8C175.373 71.9333 177.173 72 179.573 72L186.973 71.8C188.44 71.6667 190.573 71.6 193.373 71.6C197.373 71.6 200.707 72.2 203.373 73.4C206.04 74.6 207.373 76.5333 207.373 79.2C207.373 83.3333 206.707 86.3333 205.373 88.2C204.04 90.0667 202.507 91 200.773 91C199.173 91 196.507 90.7333 192.773 90.2C187.84 89.6667 182.04 89.4 175.373 89.4C170.707 89.4 164.507 89.6667 156.773 90.2Z" fill="white"/>
</svg>

<svg xmlns="http://www.w3.org/2000/svg" width="250" height="250" fill="none" viewBox="0 0 250 250"><rect width="250" height="250" fill="#609" rx="30"/><path fill="#fff" d="M88.6 89.8q-2 39.2-2 62.4 0 12 .6 22.8 1.6 1.2 6.2 1.2l4.6-.2q2.8-.4 5.2-.4 5.2 0 8 1.8 3 1.8 3 7 0 5-3 7.8-2.8 2.8-11.8 2.8-7.6 0-18.4-1.2a789 789 0 0 1-5-.4 54 54 0 0 0-4.4-.2q-11 .2-16.4.8t-12.2.6q-6.2 0-6.2-9.4 0-9 11.6-9 1.8 0 5.8.4 3.4.6 7.2.6 2.2 0 3.6-.2.2-13.4 1.4-39 1.2-30 1.2-44.4-1 .2-7 2.8Q51.4 101 47 101q-2.4 0-4.4-2.4-2-2.6-2-6t4.2-6.6 13.6-8.4a93 93 0 0 0 10-5.8q1.2-.8 3.4-1.6 2.4-.8 3.6-.8 5.2 0 9.4 2.2 4.4 2 4.4 5.4zm68.173.4q-1.4 5.6-1.8 14.8-.399 8-1.2 12 5.8-2.4 11-3 5.2-.8 13.2-.8 12.4 0 21.6 5.8 9.2 5.6 14 15.2 4.8 9.4 4.8 20.2 0 4.2-2.8 11.4-2.8 7-5.8 10.8-6.999 9.2-16.2 14.2-9.2 4.8-20 4.8-8.199 0-15-2.2-6.6-2.4-14.2-6.4-7.8-4.2-11.4-8.6-3.4-4.6-3.4-11.4 0-3.6 3-5.8 3.201-2.4 6-2.4 1.8 0 3.2 1t4.6 4l5 4.8q4.8 4 9.4 6 4.8 2 11.6 2 6.2 0 10-1.6 7.6-3 11.8-7.8 4.4-4.8 4.4-15.4 0-10.2-6.8-15.8-6.8-5.8-23-5.8-2.2 0-6.4 1.2t-8.2 2.6q-9.6 3.2-11.8 3.2-2.8 0-5.6-2.4t-2.8-6.4q3.6-24.2 3.6-40.2l-.2-5q-.4-3.6-.4-6 0-3.6 3.8-5.4 4-2 8.2-2 3.6 0 15.6 1.2l9.6.8q1.8.2 5.4.2l7.4-.2q2.2-.2 6.4-.2 6 0 10 1.8t4 5.8q0 6.2-2 9t-4.6 2.8q-2.4 0-8-.8-7.4-.8-17.4-.8-6.999 0-18.6.8"/></svg>
